X:14952
T:Schottis efter Per Myr, Funa:sdalen
R:Schottis
Z:Transcribed by Henrik Norbeck.
K:Edor
M:C|
EDEF G2G2|BAcA B2B2|dedc A2A2|Acec G2G2|
EDEF G2G2|BAcA B2B2|dedc AAFD|E2E2 E4:|
|:efec dedB|cdcA B2B2|EDEF G2G2|BAcA B2B2|
efec dedB|cdcA B2B2|EDEF GAGE|F2D2 E4:|
